X:14179
T:Regents Fete. JC.222
M:6/8
L:1/8
Q:120
S:John Clare,Poet,Helpstone (1793-1864)
R:Jig
O:England222
A:Northamptonshire
N:
Z:P Headford
K:G
g|d2gB2d|G2G GFG|A2A Adc|B2AG2g|!
d2gB2d|G2G GFG|A2A AdF|G3-G2:|!
|:B|A2A ABc|d2cB2d|gfe dcB|ABcB2B|!
A2A ABc|d2cB2d|dBG DEF|G3-G2:|]
